icons/telegram-line.svg

<svg xmlns="http://www.w3.org/2000/svg" width="24" height="24" fill="none"><g clip-path="url(#a)"><g><path fill="#121212" d="M12 20C14.1217 20 16.1566 19.1571 17.6569 17.6569C19.1571 16.1566 20 14.1217 20 12C20 9.87827 19.1571 7.84344 17.6569 6.34315C16.1566 4.84285 14.1217 4 12 4C9.87827 4 7.84344 4.84285 6.34315 6.34315C4.84285 7.84344 4 9.87827 4 12C4 14.1217 4.84285 16.1566 6.34315 17.6569C7.84344 19.1571 9.87827 20 12 20ZM12 22C6.477 22 2 17.523 2 12C2 6.477 6.477 2 12 2C17.523 2 22 6.477 22 12C22 17.523 17.523 22 12 22ZM8.89 13.17L6.392 12.391C5.852 12.226 5.849 11.854 6.513 11.587L16.246 7.827C16.811 7.597 17.131 7.888 16.948 8.617L15.291 16.437C15.175 16.994 14.84 17.127 14.375 16.87L11.824 14.982L10.635 16.13C10.513 16.248 10.414 16.349 10.226 16.374C10.039 16.4 9.885 16.344 9.772 16.034L8.902 13.163L8.89 13.171V13.17Z"/></g></g><defs><clipPath id="a"><rect width="24" height="24" fill="white"/></clipPath></defs></svg>

<svg width="24" height="24" fill="none" xmlns="http://www.w3.org/2000/svg"><g clip-path="url(#a)"><path d="M12 20a8 8 0 1 0 0-16.001A8 8 0 0 0 12 20Zm0 2C6.477 22 2 17.523 2 12S6.477 2 12 2s10 4.477 10 10-4.477 10-10 10Zm-3.11-8.83-2.498-.779c-.54-.165-.543-.537.121-.804l9.733-3.76c.565-.23.885.061.702.79l-1.657 7.82c-.116.557-.451.69-.916.433l-2.551-1.888-1.189 1.148c-.122.118-.221.219-.409.244-.187.026-.341-.03-.454-.34l-.87-2.871-.012.008v-.001Z" /></g><defs><clipPath id="a"><path fill="#fff" d="M0 0h24v24H0z"/></clipPath></defs></svg>
